X: 134
T:Planxty Hewlett
C:Turlough O'Carolan
N: page 44
N: heptatonic
R: Waltz
M:3/4
L:1/8
K:D
"D" D2D2FG |"A7" ABc2A2 |"D" d2f2fg | fed3B |\
A2F2F2 |"G" G2GABG |"D" AF"A7"D2D2|[1"D" D4 DD:|[2 "D" D6|
"D" A2D2AB | A2D2AB | A2d2d2 | dcBAGF |\
"G"G2G2GA | G2G2GA | G2GABG |"D" AFD2D2 |FEF2G2 |"A7" ABc2A2 |
"D" fe fg ag |fe d3B | A2 ABAF |"G" G3A BG | AF D2 D2 |"D" D4 |
